X:1
T:Title
%%score { ( 1 3 5 ) | ( 2 4 ) }
L:1/8
M:3/4
K:Ab
V:1 treble nm="Grand Piano"
V:3 treble 
V:5 treble 
V:2 bass 
V:4 bass 
V:1
 z2 z2[Q:1/4=96] Dc | B2 A2 z2 | A2 G2 Ed | c4 z2 |[M:2/4] c4 |[M:1/4] Ec |[M:3/4] B2 A2 z2 | %7
 A2 G2 Ed | c4 z2 |[M:2/4] A4[K:bass] |[M:1/4] z2 |[M:3/4][K:treble] e4 z2 | d2 c2 z2 | c4 z2 | %14
[M:2/4] B4 |[M:1/4] Ec |[M:3/4] B2 A2 z2 | A2 G2 Ed | c4 z2 |[M:2/4] A4 |[M:1/4] eA | %21
[M:3/4] z E z f ed | c2 e2 z2 | z E E[Gf] [Ge]d |[M:2/4] c4 |[M:1/4] Ec |[M:3/4] B2 A2 z2 | %27
 A2 G2 Ed | c4 z2 |[M:6/4] .A6[K:bass] z6 |] %30
V:2
 z6 | [A,,E,][A,,E,] [A,,E,][A,,E,] [A,,A,][A,,A,] | [E,B,D]2 [E,B,D]2 z2 | [E,G,E][E,G,] z D CD | %4
[M:2/4] [A,E]A, A,2 |[M:1/4] z2 |[M:3/4] [A,,E,][A,,E,] [A,,E,][A,,E,] [A,,A,][A,,A,] | %7
 [E,B,D]2 [E,B,D]2 z2 | z2 z2 .B,2 |[M:2/4] A,,A,, A,,2 |[M:1/4][K:treble] ce | %11
[M:3/4][K:bass] [E,B,][E,B,] [E,B,]2 [E,G,]2 | [A,F]A, [A,E]A, z2 | %13
 [B,,A,][B,,A,] [B,,A,]2 [B,,A,]2 |[M:2/4] [E,G,D][E,G,] [E,G,]2 |[M:1/4] z2 | %16
[M:3/4] [A,,E,][A,,E,] [A,,E,][A,,E,] [A,,A,][A,,A,] | [E,B,D]2 [E,B,D]2 z2 | z2 z2 .B,2 | %19
[M:2/4] A,,[A,,F,] [A,,E,]2 |[M:1/4] z2 |[M:3/4] [E,DE][E,D] [E,D]2 [G,B,E]2 | %22
 [A,E]A, [A,CE][A,C] z2 | [E,DE][E,D] [E,D][E,D] [E,C][E,B,E] |[M:2/4] [A,E]4 |[M:1/4] z2 | %26
[M:3/4] [A,,E,][A,,E,] [A,,E,][A,,E,] [A,,A,][A,,A,] | [E,B,D]2 [E,B,D]2 z2 | z2 z2 .B,2 | %29
[M:6/4] A,,A,, .A,,4 z6 |] %30
V:3
 x6 | CC CC [CE][CB] | x6 | z E EB AB |[M:2/4] z E E2 |[M:1/4] x2 |[M:3/4] CC CC [CE][CB] | x6 | %8
 z D z B GE |[M:2/4] [A,C][K:bass][F,D] [E,C]2 |[M:1/4] x2 |[M:3/4][K:treble] GG z d z d | %12
 z F z E Ec | =DD z B FB |[M:2/4] z D D2 |[M:1/4] x2 |[M:3/4] CC CC [CE][CB] | x6 | z D z B GE | %19
[M:2/4] [A,C]D C2 |[M:1/4] x2 |[M:3/4] G4 z2 | z E z E eA | G4 z2 |[M:2/4] x4 |[M:1/4] x2 | %26
[M:3/4] CC CC [CE][CB] | x6 | z D z B GE |[M:6/4] [A,C][K:bass][F,D] .[E,C]4 z6 |] %30
V:4
 x6 | x6 | x6 | z2 [E,G,]2 [E,G,]2 |[M:2/4] x4 |[M:1/4] x2 |[M:3/4] x6 | x6 | %8
 [E,G,D][E,G,] [E,G,]2 [E,D]-[E,G,D] |[M:2/4] x4 |[M:1/4][K:treble] x2 |[M:3/4][K:bass] x6 | x6 | %13
 x6 |[M:2/4] x4 |[M:1/4] x2 |[M:3/4] x6 | x6 | [E,G,D][E,G,] [E,G,]2 [E,D]-[E,G,D] |[M:2/4] x4 | %20
[M:1/4] x2 |[M:3/4] x6 | x6 | x6 |[M:2/4] x4 |[M:1/4] x2 |[M:3/4] x6 | x6 | %28
 [E,G,D][E,G,] [E,G,]2 [E,D]-[E,G,D] |[M:6/4] x12 |] %30
V:5
 x6 | x6 | x6 | x6 |[M:2/4] x4 |[M:1/4] x2 |[M:3/4] x6 | x6 | z2 D2 z2 |[M:2/4] x[K:bass] x3 | %10
[M:1/4] x2 |[M:3/4][K:treble] z2 E2 E2 | x6 | z2 =D2 D2 |[M:2/4] x4 |[M:1/4] x2 |[M:3/4] x6 | x6 | %18
 z2 D2 z2 |[M:2/4] x4 |[M:1/4] x2 |[M:3/4] z2 E2 z2 | x6 | x6 |[M:2/4] x4 |[M:1/4] x2 |[M:3/4] x6 | %27
 x6 | z2 D2 z2 |[M:6/4] x[K:bass] x11 |] %30

